packages/icon/src/svg/plus-circle-fill.icon.svg

<svg width="24" height="24" viewBox="0 0 24 24" fill="none" xmlns="http://www.w3.org/2000/svg">
<path fill-rule="evenodd" clip-rule="evenodd" d="M12 2C6.47998 2 2 6.47998 2 12C2 17.52 6.47998 22 12 22C17.52 22 22 17.52 22 12C22 6.47998 17.52 2 12 2ZM12.5 7C12.7761 7 13 7.22388 13 7.5V11H16.5C16.7761 11 17 11.2239 17 11.5V12.5C17 12.7761 16.7761 13 16.5 13H13V16.5C13 16.7761 12.7761 17 12.5 17H11.5C11.2239 17 11 16.7761 11 16.5V13H7.5C7.22388 13 7 12.7761 7 12.5V11.5C7 11.2239 7.22388 11 7.5 11H11V7.5C11 7.22388 11.2239 7 11.5 7H12.5Z" fill="white"/>
</svg>

<svg aria-label="plus circle fill icon" viewBox="0 0 24 24"><path fill-rule="evenodd" clip-rule="evenodd" d="M12 2C6.48 2 2 6.48 2 12s4.48 10 10 10 10-4.48 10-10S17.52 2 12 2zm.5 5a.5.5 0 01.5.5V11h3.5a.5.5 0 01.5.5v1a.5.5 0 01-.5.5H13v3.5a.5.5 0 01-.5.5h-1a.5.5 0 01-.5-.5V13H7.5a.5.5 0 01-.5-.5v-1a.5.5 0 01.5-.5H11V7.5a.5.5 0 01.5-.5h1z"/></svg>
